; generated by PrusaSlicer 2.7.4+win64 on 2024-06-11 at 15:18:30 UTC


;
;

;
;

;
;

;
;

;
;
; 

; external perimeters extrusion width = 0.45mm
; perimeters extrusion width = 0.45mm
; infill extrusion width = 0.45mm
; solid infill extrusion width = 0.45mm
; top infill extrusion width = 0.42mm
; first layer extrusion width = 0.50mm

M73 P0 R1
M73 Q0 S1
M201 X4000 Y4000 Z200 E2500 ; sets maximum accelerations, mm/sec^2
M203 X300 Y300 Z40 E100 ; sets maximum feedrates, mm / sec
M204 P4000 R1200 T4000 ; sets acceleration (P, T) and retract acceleration (R), mm/sec^2
M205 X8.00 Y8.00 Z2.00 E10.00 ; sets the jerk limits, mm/sec
M205 S0 T0 ; sets the minimum extruding and travel feed rate, mm/sec

M486 S0
M486 AForme-Bote
M486 S-1

;TYPE:Custom
M17 ; enable steppers
M862.1 P0.4 ; nozzle diameter check
M862.3 P "MK4" ; printer model check
M862.5 P2 ; g-code level check
M862.6 P"Input shaper" ; FW feature check
M115 U6.0.1+14848

M555 X122.463 Y97.0863 W32 H11.8275

G90 ; use absolute coordinates
M83 ; extruder relative mode

M140 S85 ; set bed temp
M104 T0 S175 ; set extruder temp for bed leveling
M109 T0 R175 ; wait for temp

M84 E ; turn off E motor

G28 ; home all without mesh bed level

G1 X42 Y-4 Z5 F4800

M302 S160 ; lower cold extrusion limit to 160C


G1 E-2 F2400 ; retraction
M73 P1 R1
M73 Q1 S1


M84 E ; turn off E motor

G29 P9 X10 Y-4 W32 H4



G0 Z40 F10000

M190 S85 ; wait for bed temp

M107

;
; MBL
;
M84 E ; turn off E motor
G29 P1 ; invalidate mbl & probe print area
G29 P1 X0 Y0 W50 H20 C ; probe near purge place
G29 P3.2 ; interpolate mbl probes
G29 P3.13 ; extrapolate mbl outside probe area
G29 A ; activate mbl

; prepare for purge
M104 S240
G0 X0 Y-4 Z15 F4800 ; move away and ready for the purge
M73 P2 R1
M73 Q2 S1
M109 S240

G92 E0
M569 S0 E ; set spreadcycle mode for extruder

;
; Extrude purge line
;
G92 E0 ; reset extruder position
G1 E2 F2400 ; deretraction after the initial one before nozzle cleaning
M73 P3 R1
M73 Q3 S1
G0 E7 X15 Z0.2 F500 ; purge
G0 X25 E4 F500 ; purge
M73 P7 R1
M73 Q7 S1
G0 X35 E4 F650 ; purge
M73 P8 R1
M73 Q8 S1
G0 X45 E4 F800 ; purge
M73 P9 R1
M73 Q9 S1
G0 X48 Z0.05 F8000 ; wipe, move close to the bed
M73 P10 R1
M73 Q10 S1
G0 X51 Z0.2 F8000 ; wipe, move quickly away from the bed

G92 E0
M221 S100 ; set flow to 100%
G21 ; set units to millimeters
G90 ; use absolute coordinates
M83 ; use relative distances for extrusion
M900 K0.07 ; Filament gcode


M572 S0.053 ; Filament gcode


M142 S36 ; set heatbreak target temp
M107
;LAYER_CHANGE
;Z:0.2
;HEIGHT:0.2
G1 E-.8 F2100
G1 Z1.7 F720
M486 S0
G1 X126.63 Y108.007 F18000
M73 P11 R1
M73 Q11 S1
G1 Z.2 F720
M73 Q12 S1
G1 E.8 F1500
M204 P500
;TYPE:Perimeter
;WIDTH:0.499999
G1 F900
M73 P12 R1
G1 X123.37 Y108.007 E.1239
G1 X123.37 Y101.993 E.22857
G1 X126.63 Y101.993 E.1239
M73 Q13 S1
G1 X126.63 Y103.623 E.06195
M73 P13 R1
G1 X126.63 Y107.947 E.16434
M204 P4000
M204 T4000
G1 X126.63 Y107.947 F18000
G1 X127.087 Y108.464
M204 P500
;TYPE:External perimeter
G1 F900
G1 X122.913 Y108.464 E.15864
G1 X122.913 Y101.536 E.26331
M73 P14 R1
M73 Q14 S1
G1 X127.087 Y101.536 E.15864
G1 X127.087 Y103.623 E.07932
M73 Q15 S1
G1 X127.087 Y108.404 E.18171
M73 P15 R1
M204 P4000
G1 E-.16 F2100
;WIPE_START
G1 F14400
G1 X127.087 Y108.464 E-.00831
G1 X122.913 Y108.464 E-.57827
G1 X122.913 Y108.078 E-.05342
;WIPE_END
G1 X126.447 Y103.127 Z.306 F18000
G1 Z.2 F720
M73 Q16 S1
G1 E.8 F1500
M204 P500
;TYPE:Solid infill
;WIDTH:0.512465
G1 F900
G1 X125.702 Y102.382 E.04114
G1 X125.038 Y102.382 E.02592
G1 X126.241 Y103.585 E.06642
M73 P16 R1
G1 X126.241 Y104.249 E.02592
G1 X124.374 Y102.382 E.10309
G1 X123.759 Y102.382 E.02401
G1 X123.759 Y102.431 E.00191
G1 X126.241 Y104.913 E.13704
G1 X126.241 Y105.577 E.02592
M73 Q17 S1
G1 X123.759 Y103.095 E.13704
G1 X123.759 Y103.759 E.02592
M73 P17 R1
G1 X126.241 Y106.241 E.13704
G1 X126.241 Y106.905 E.02592
G1 X123.759 Y104.423 E.13704
G1 X123.759 Y105.087 E.02592
M73 Q18 S1
G1 X126.241 Y107.569 E.13704
G1 X126.241 Y107.618 E.00191
M73 P18 R1
G1 X125.626 Y107.618 E.02401
G1 X123.759 Y105.751 E.10309
G1 X123.759 Y106.415 E.02592
G1 X124.962 Y107.618 E.06642
G1 X124.298 Y107.618 E.02592
G1 X123.553 Y106.874 E.04111
M73 Q19 S1
M204 P4000
;LAYER_CHANGE
;Z:0.4
;HEIGHT:0.2
;BEFORE_LAYER_CHANGE
G92 E0.0
;0.4
M201 X3999.99 Y3999.99
M74 W0.00888905

G1 E-.16 F2100
;WIPE_START
G1 F14400
G1 X124.298 Y107.618 E-.14587
G1 X124.962 Y107.618 E-.09199
G1 X123.759 Y106.415 E-.2357
M73 P19 R1
G1 X123.759 Y105.751 E-.09199
G1 X124.139 Y106.131 E-.07445
;WIPE_END
G1 X124.139 Y106.131 Z.2 F18000
G1 X126.905 Y108.282 Z.4 F12827.691
;AFTER_LAYER_CHANGE
;0.4
M104 S245 ; set temperature
M140 S90 ; set bed temperature
G1 X126.905 Y108.282 F18000
G1 Z.4 F720
G1 E.8 F1500
;TYPE:Perimeter
;WIDTH:0.449999
G1 F900
G1 X123.095 Y108.282 E.12896
G1 X123.095 Y101.718 E.22218
G1 X126.905 Y101.718 E.12896
M73 P20 R1
M73 Q20 S1
G1 X126.905 Y103.623 E.06448
G1 X126.905 Y108.222 E.15567
G1 X126.905 Y108.222 F18000
M73 P21 R1
M73 Q21 S1
G1 X127.312 Y108.689
;TYPE:External perimeter
G1 F900
G1 X122.688 Y108.689 E.15652
G1 X122.688 Y101.311 E.24974
G1 X127.312 Y101.311 E.15652
M73 P22 R1
M73 Q22 S1
G1 X127.312 Y103.623 E.07826
G1 X127.312 Y108.629 E.16945
G1 E-.16 F2100
M73 P23 R1
M73 Q23 S1
;WIPE_START
G1 F14400
G1 X127.312 Y108.689 E-.00831
G1 X122.753 Y108.689 E-.63169
;WIPE_END
G1 X123.552 Y102.097 Z.516 F18000
G1 Z.4 F720
G1 E.8 F1500
;TYPE:Solid infill
;WIDTH:0.548766
G1 F900
G2 X123.536 Y102.158 I-.058 J.018 E.01323
;WIDTH:0.449999
G1 X124.186 Y102.064 E.02223
G1 X123.441 Y102.809 E.03566
G1 X123.441 Y103.384 E.01946
G1 X124.761 Y102.064 E.06319
G1 X125.337 Y102.064 E.0195
G1 X123.441 Y103.96 E.09076
M73 Q24 S1
G1 X123.441 Y104.536 E.0195
M73 P24 R1
G1 X125.913 Y102.064 E.11833
G1 X126.698 Y101.925 E.02698
M73 P24 R0
;WIDTH:0.38292
G1 X126.712 Y102.123 E.00561
;WIDTH:0.41646
G1 X126.6 Y102.094 E.00359
;WIDTH:0.449999
G1 X126.489 Y102.064 E.00389
G1 X123.441 Y105.111 E.14588
G1 X123.441 Y105.687 E.0195
M73 Q25 S1
G1 X126.559 Y102.57 E.14923
G1 X126.559 Y103.146 E.0195
M73 P25 R0
M73 Q25 S0
G1 X123.441 Y106.263 E.14923
G1 X123.441 Y106.839 E.0195
G1 X126.559 Y103.721 E.14926
G1 X126.559 Y104.297 E.0195
M73 P26 R0
M73 Q26 S0
G1 X123.441 Y107.414 E.14923
G1 X123.295 Y108.082 E.02314
;WIDTH:0.38292
G1 X123.288 Y107.956 E.00357
;WIDTH:0.41646
G1 X123.392 Y107.946 E.00325
;WIDTH:0.449999
G1 X123.496 Y107.936 E.00354
G1 X126.559 Y104.873 E.14662
G1 X126.559 Y105.449 E.0195
M73 P27 R0
M73 Q27 S0
G1 X124.071 Y107.936 E.11908
G1 X124.647 Y107.936 E.0195
G1 X126.559 Y106.024 E.09153
G1 X126.559 Y106.6 E.0195
G1 X125.223 Y107.936 E.06395
G1 X125.672 Y108.139 E.01668
M73 Q28 S0
;WIDTH:0.38292
G1 X125.631 Y108.15 E.0012
G1 X125.612 Y108.079 E.00208
G1 X125.683 Y108.098 E.00208
;WIDTH:0.41646
G1 X125.741 Y108.017 E.00309
;WIDTH:0.449999
G1 X125.799 Y107.936 E.00337
G1 X126.559 Y107.176 E.03638
G1 X126.567 Y107.865 E.02332
M73 P28 R0
;WIDTH:0.557934
G2 X126.55 Y107.927 I-.059 J.017 E.01371
;LAYER_CHANGE
;Z:0.6
;HEIGHT:0.2
;BEFORE_LAYER_CHANGE
G92 E0.0
;0.6
M201 X3999.98 Y3999.98
M74 W0.0192402

G1 X126.55 Y107.927 Z.4 F18000
G1 X126.905 Y108.282 Z.6 F2452.436
G1 X126.905 Y108.282 Z.6 F18000
;AFTER_LAYER_CHANGE
;0.6
G1 Z.6 F720

;TYPE:Perimeter
;WIDTH:0.449999
G1 F900
G1 X123.095 Y108.282 E.12896
G1 X123.095 Y101.718 E.22218
G1 X126.905 Y101.718 E.12896
M73 P29 R0
M73 Q29 S0
G1 X126.905 Y103.623 E.06448
G1 X126.905 Y108.222 E.15567
G1 X126.905 Y108.222 F18000
M73 P30 R0
M73 Q30 S0
G1 X127.312 Y108.689
;TYPE:External perimeter
G1 F900
G1 X122.688 Y108.689 E.15652
G1 X122.688 Y101.311 E.24974
G1 X127.312 Y101.311 E.15652
M73 P31 R0
M73 Q31 S0
G1 X127.312 Y103.623 E.07826
G1 X127.312 Y108.629 E.16945
G1 E-.16 F2100
M73 P32 R0
M73 Q32 S0
;WIPE_START
G1 F14400
G1 X127.312 Y108.689 E-.00831
G1 X122.753 Y108.689 E-.63169
;WIPE_END
G1 X123.474 Y107.825 Z.62 F18000
G1 Z.6 F720
G1 E.8 F1500
;TYPE:Solid infill
;WIDTH:0.548766
G1 F900
G2 X123.536 Y107.842 I.018 J.058 E.01317
;WIDTH:0.449999
G1 X123.441 Y107.191 E.02227
G1 X124.186 Y107.936 E.03566
G1 X124.761 Y107.936 E.01946
G1 X123.441 Y106.616 E.06319
G1 X123.441 Y106.04 E.0195
G1 X125.337 Y107.936 E.09076
G1 X125.913 Y107.936 E.0195
M73 Q33 S0
G1 X123.441 Y105.464 E.11833
M73 P33 R0
G1 X123.441 Y104.889 E.01946
G1 X126.489 Y107.936 E.14588
G1 X126.593 Y108.005 E.00422
;WIDTH:0.41646
G1 X126.698 Y108.075 E.00392
;WIDTH:0.38292
G1 X126.712 Y107.877 E.00561
;WIDTH:0.449999
G1 X126.559 Y107.43 E.01599
G1 X123.441 Y104.313 E.14923
G1 X123.441 Y103.737 E.0195
M73 P34 R0
M73 Q34 S0
G1 X126.559 Y106.854 E.14923
G1 X126.559 Y106.279 E.01946
G1 X123.441 Y103.161 E.14926
G1 X123.441 Y102.586 E.01946
M73 P35 R0
M73 Q35 S0
G1 X126.559 Y105.703 E.14923
G1 X126.559 Y105.127 E.0195
G1 X123.496 Y102.064 E.14662
G1 X123.395 Y101.991 E.00422
;WIDTH:0.41646
G1 X123.295 Y101.918 E.00385
;WIDTH:0.38292
G1 X123.288 Y102.044 E.00357
;WIDTH:0.449999
G1 X124.071 Y102.064 E.02651
G1 X126.559 Y104.551 E.11908
M73 Q36 S0
G1 X126.559 Y103.976 E.01946
M73 P36 R0
G1 X124.647 Y102.064 E.09153
G1 X125.223 Y102.064 E.0195
G1 X126.559 Y103.4 E.06395
G1 X126.559 Y102.824 E.0195
G1 X125.799 Y102.064 E.03638
G1 X125.735 Y101.962 E.00408
;WIDTH:0.41646
G1 X125.672 Y101.861 E.0037
;WIDTH:0.38292
G1 X125.683 Y101.902 E.0012
G1 X125.612 Y101.921 E.00208
M73 Q37 S0
G1 X125.631 Y101.85 E.00208
G1 X125.631 Y101.85 F18000
G1 X126.488 Y102.056
;WIDTH:0.557934
G1 F900
G2 X126.55 Y102.073 I.017 J.059 E.01371
M73 P37 R0
M106 S76.5
;LAYER_CHANGE
;Z:0.8
;HEIGHT:0.2
;BEFORE_LAYER_CHANGE
G92 E0.0
;0.8
M201 X3999.97 Y3999.97
M74 W0.0295149

G1 E-.16 F2100
;WIPE_START
G1 F14400
G3 X126.488 Y102.056 I-.045 J.042 E-.04436
;WIPE_END
G1 E-.59564 F2100
G1 X126.488 Y102.056 Z.6 F18000
G1 X126.905 Y108.282 Z.8
;AFTER_LAYER_CHANGE
;0.8
G1 X126.905 Y108.282
G1 Z.8 F720
G1 E.8 F1500
;TYPE:Perimeter
;WIDTH:0.449999
G1 F900
G1 X123.095 Y108.282 E.12896
G1 X123.095 Y101.718 E.22218
G1 X126.905 Y101.718 E.12896
M73 P38 R0
M73 Q38 S0
G1 X126.905 Y103.623 E.06448
G1 X126.905 Y108.222 E.15567
G1 X126.905 Y108.222 F18000
M73 P39 R0
M73 Q39 S0
G1 X127.312 Y108.689
;TYPE:External perimeter
G1 F900
G1 X122.688 Y108.689 E.15652
G1 X122.688 Y101.311 E.24974
G1 X127.312 Y101.311 E.15652
M73 P40 R0
M73 Q40 S0
G1 X127.312 Y103.623 E.07826
G1 X127.312 Y108.629 E.16945
G1 E-.16 F2100
M73 P41 R0
M73 Q41 S0
;WIPE_START
G1 F14400
G1 X127.312 Y108.689 E-.00831
G1 X122.753 Y108.689 E-.63169
;WIPE_END
G1 X123.552 Y102.097 Z.916 F18000
G1 Z.8 F720
G1 E.8 F1500
;TYPE:Solid infill
;WIDTH:0.548766
G1 F900
G2 X123.536 Y102.158 I-.058 J.018 E.01323
;WIDTH:0.449999
G1 X124.186 Y102.064 E.02223
G1 X123.441 Y102.809 E.03566
G1 X123.441 Y103.384 E.01946
G1 X124.761 Y102.064 E.06319
G1 X125.337 Y102.064 E.0195
G1 X123.441 Y103.96 E.09076
G1 X123.441 Y104.536 E.0195
M73 P42 R0
M73 Q42 S0
G1 X125.913 Y102.064 E.11833
G1 X126.698 Y101.925 E.02698
;WIDTH:0.38292
G1 X126.712 Y102.123 E.00561
;WIDTH:0.41646
G1 X126.6 Y102.094 E.00359
;WIDTH:0.449999
G1 X126.489 Y102.064 E.00389
G1 X123.441 Y105.111 E.14588
G1 X123.441 Y105.687 E.0195
G1 X126.559 Y102.57 E.14923
M73 Q43 S0
G1 X126.559 Y103.146 E.0195
M73 P43 R0
G1 X123.441 Y106.263 E.14923
G1 X123.441 Y106.839 E.0195
G1 X126.559 Y103.721 E.14926
G1 X126.559 Y104.297 E.0195
M73 P44 R0
M73 Q44 S0
G1 X123.441 Y107.414 E.14923
G1 X123.295 Y108.082 E.02314
;WIDTH:0.38292
G1 X123.288 Y107.956 E.00357
;WIDTH:0.41646
G1 X123.392 Y107.946 E.00325
;WIDTH:0.449999
G1 X123.496 Y107.936 E.00354
G1 X126.559 Y104.873 E.14662
G1 X126.559 Y105.449 E.0195
M73 P45 R0
M73 Q45 S0
G1 X124.071 Y107.936 E.11908
G1 X124.647 Y107.936 E.0195
G1 X126.559 Y106.024 E.09153
G1 X126.559 Y106.6 E.0195
G1 X125.223 Y107.936 E.06395
G1 X125.672 Y108.139 E.01668
;WIDTH:0.38292
G1 X125.631 Y108.15 E.0012
G1 X125.612 Y108.079 E.00208
G1 X125.683 Y108.098 E.00208
;WIDTH:0.41646
G1 X125.741 Y108.017 E.00309
;WIDTH:0.449999
G1 X125.799 Y107.936 E.00337
M73 Q46 S0
G1 X126.559 Y107.176 E.03638
G1 X126.567 Y107.865 E.02332
M73 P46 R0
;WIDTH:0.557934
G2 X126.55 Y107.927 I-.059 J.017 E.01371
M106 S153
;LAYER_CHANGE
;Z:1
;HEIGHT:0.2
;BEFORE_LAYER_CHANGE
G92 E0.0
;1
M201 X3999.96 Y3999.96
M74 W0.039866

G1 X126.55 Y107.927 Z.8 F18000
G1 X126.905 Y108.282 Z1 F2452.436
G1 X126.905 Y108.282 Z1 F18000
;AFTER_LAYER_CHANGE
;1
G1 Z1 F720

;TYPE:Perimeter
;WIDTH:0.449999
G1 F900
G1 X123.095 Y108.282 E.12896
G1 X123.095 Y101.718 E.22218
G1 X126.905 Y101.718 E.12896
M73 P47 R0
M73 Q47 S0
G1 X126.905 Y103.623 E.06448
G1 X126.905 Y108.222 E.15567
G1 X126.905 Y108.222 F18000
M73 Q48 S0
G1 X127.312 Y108.689
;TYPE:External perimeter
G1 F900
M73 P48 R0
G1 X122.688 Y108.689 E.15652
G1 X122.688 Y101.311 E.24974
G1 X127.312 Y101.311 E.15652
M73 P49 R0
M73 Q49 S0
G1 X127.312 Y103.623 E.07826
G1 X127.312 Y108.629 E.16945
G1 E-.16 F2100
M73 P50 R0
M73 Q50 S0
;WIPE_START
G1 F14400
G1 X127.312 Y108.689 E-.00831
G1 X122.753 Y108.689 E-.63169
;WIPE_END
G1 X123.474 Y107.825 Z1.02 F18000
G1 Z1 F720
G1 E.8 F1500
;TYPE:Solid infill
;WIDTH:0.548766
G1 F900
G2 X123.536 Y107.842 I.018 J.058 E.01317
;WIDTH:0.449999
G1 X123.441 Y107.191 E.02227
G1 X124.186 Y107.936 E.03566
G1 X124.761 Y107.936 E.01946
G1 X123.441 Y106.616 E.06319
G1 X123.441 Y106.04 E.0195
G1 X125.337 Y107.936 E.09076
G1 X125.913 Y107.936 E.0195
G1 X123.441 Y105.464 E.11833
M73 Q51 S0
G1 X123.441 Y104.889 E.01946
M73 P51 R0
G1 X126.489 Y107.936 E.14588
G1 X126.593 Y108.005 E.00422
;WIDTH:0.41646
G1 X126.698 Y108.075 E.00392
;WIDTH:0.38292
G1 X126.712 Y107.877 E.00561
;WIDTH:0.449999
G1 X126.559 Y107.43 E.01599
G1 X123.441 Y104.313 E.14923
G1 X123.441 Y103.737 E.0195
M73 P52 R0
M73 Q52 S0
G1 X126.559 Y106.854 E.14923
G1 X126.559 Y106.279 E.01946
G1 X123.441 Y103.161 E.14926
G1 X123.441 Y102.586 E.01946
M73 Q53 S0
G1 X126.559 Y105.703 E.14923
M73 P53 R0
G1 X126.559 Y105.127 E.0195
G1 X123.496 Y102.064 E.14662
G1 X123.395 Y101.991 E.00422
;WIDTH:0.41646
G1 X123.295 Y101.918 E.00385
;WIDTH:0.38292
G1 X123.288 Y102.044 E.00357
;WIDTH:0.449999
G1 X124.071 Y102.064 E.02651
G1 X126.559 Y104.551 E.11908
G1 X126.559 Y103.976 E.01946
M73 P54 R0
M73 Q54 S0
G1 X124.647 Y102.064 E.09153
G1 X125.223 Y102.064 E.0195
G1 X126.559 Y103.4 E.06395
G1 X126.559 Y102.824 E.0195
G1 X125.799 Y102.064 E.03638
G1 X125.735 Y101.962 E.00408
;WIDTH:0.41646
G1 X125.672 Y101.861 E.0037
;WIDTH:0.38292
G1 X125.683 Y101.902 E.0012
G1 X125.612 Y101.921 E.00208
G1 X125.631 Y101.85 E.00208
G1 X125.631 Y101.85 F18000
G1 X126.488 Y102.056
;WIDTH:0.557934
G1 F900
G2 X126.55 Y102.073 I.017 J.059 E.01371
;LAYER_CHANGE
;Z:1.2
;HEIGHT:0.2
;BEFORE_LAYER_CHANGE
G92 E0.0
;1.2
M201 X3999.95 Y3999.95
M74 W0.0501407

G1 E-.16 F2100
M73 Q55 S0
;WIPE_START
G1 F14400
G3 X126.488 Y102.056 I-.045 J.042 E-.04436
;WIPE_END
G1 E-.59564 F2100
M73 P55 R0
G1 X126.488 Y102.056 Z1 F18000
G1 X126.905 Y108.282 Z1.2
;AFTER_LAYER_CHANGE
;1.2
G1 X126.905 Y108.282
G1 Z1.2 F720
G1 E.8 F1500
;TYPE:Perimeter
;WIDTH:0.449999
G1 F900
G1 X123.095 Y108.282 E.12896
G1 X123.095 Y101.718 E.22218
G1 X126.905 Y101.718 E.12896
M73 P56 R0
M73 Q56 S0
G1 X126.905 Y103.623 E.06448
G1 X126.905 Y108.222 E.15567
G1 X126.905 Y108.222 F18000
M73 Q57 S0
G1 X127.312 Y108.689
;TYPE:External perimeter
G1 F900
G1 X122.688 Y108.689 E.15652
G1 X122.688 Y101.311 E.24974
M73 P57 R0
G1 X127.312 Y101.311 E.15652
M73 P58 R0
M73 Q58 S0
G1 X127.312 Y103.623 E.07826
G1 X127.312 Y108.629 E.16945
G1 E-.16 F2100
M73 P59 R0
M73 Q59 S0
;WIPE_START
G1 F14400
G1 X127.312 Y108.689 E-.00831
G1 X122.753 Y108.689 E-.63169
;WIPE_END
G1 X123.552 Y102.097 Z1.316 F18000
G1 Z1.2 F720
G1 E.8 F1500
;TYPE:Solid infill
;WIDTH:0.548766
G1 F900
G2 X123.536 Y102.158 I-.058 J.018 E.01323
;WIDTH:0.449999
G1 X124.186 Y102.064 E.02223
G1 X123.441 Y102.809 E.03566
G1 X123.441 Y103.384 E.01946
G1 X124.761 Y102.064 E.06319
G1 X125.337 Y102.064 E.0195
G1 X123.441 Y103.96 E.09076
G1 X123.441 Y104.536 E.0195
M73 Q60 S0
G1 X125.913 Y102.064 E.11833
M73 P60 R0
G1 X126.698 Y101.925 E.02698
;WIDTH:0.38292
G1 X126.712 Y102.123 E.00561
;WIDTH:0.41646
G1 X126.6 Y102.094 E.00359
;WIDTH:0.449999
G1 X126.489 Y102.064 E.00389
